gtk-icons/Papirus-GTK/16x16/mimetypes/x-content-audio-player.svg

<?xml version="1.0" encoding="UTF-8" standalone="no"?>
<svg xmlns="http://www.w3.org/2000/svg" height="16px" width="16px" version="1.1" xmlns:xlink="http://www.w3.org/1999/xlink" viewBox="0 0 16 16">
 <g id="surface1">
  <path fill="#f46e2c" d="m8 0c-3.8672 0-7 3.1328-7 7v4.5c0 1.785 1.2695 2.27 2 2.402v-6.902c0-2.7695 2.2305-5 5-5 2.77 0 5 2.2305 5 5v6.906c0.73-0.133 2-0.621 2-2.406v-4.5c0-3.8672-3.133-7-7-7z"/>
  <path fill="#f68b55" d="m3 8v7h2.5v-7zm7.5 0v7h2.5v-7z"/>
  <path fill="#fff" d="m8 0c-3.8672 0-7 3.1328-7 7v0.5c0-3.8672 3.1328-7 7-7 3.867 0 7 3.1328 7 7v-0.5c0-3.8672-3.133-7-7-7z" fill-opacity=".10196"/>
  <path fill="#fff" d="m3 8v0.5h2.5v-0.5zm7.5 0v0.5h2.5v-0.5z" fill-opacity=".10196"/>
  <path d="m8 1.5c-2.7695 0-5 2.2305-5 5v0.5c0-2.7695 2.2305-5 5-5 2.77 0 5 2.2305 5 5v-0.5c0-2.7695-2.23-5-5-5zm-7 9.5v0.5c0 1.785 1.2695 2.27 2 2.402v-0.5c-0.7305-0.132-2-0.617-2-2.402zm14 0c0 1.785-1.27 2.273-2 2.406v0.5c0.73-0.133 2-0.621 2-2.406zm-12 3.5v0.5h2.5v-0.5zm7.5 0v0.5h2.5v-0.5z" fill-opacity=".30196"/>
 </g>
</svg>

<?xml version="1.0" encoding="UTF-8" standalone="no"?>
<svg
   xmlns:dc="http://purl.org/dc/elements/1.1/"
   xmlns:cc="http://creativecommons.org/ns#"
   xmlns:rdf="http://www.w3.org/1999/02/22-rdf-syntax-ns#"
   xmlns:svg="http://www.w3.org/2000/svg"
   xmlns="http://www.w3.org/2000/svg"
   xmlns:sodipodi="http://sodipodi.sourceforge.net/DTD/sodipodi-0.dtd"
   xmlns:inkscape="http://www.inkscape.org/namespaces/inkscape"
   height="16px"
   width="16px"
   version="1.1"
   viewBox="0 0 16 16"
   id="svg2"
   inkscape:version="0.91 r"
   sodipodi:docname="x-content-audio-player.svg">
  <metadata
     id="metadata19">
    <rdf:RDF>
      <cc:Work
         rdf:about="">
        <dc:format>image/svg+xml</dc:format>
        <dc:type
           rdf:resource="http://purl.org/dc/dcmitype/StillImage" />
      </cc:Work>
    </rdf:RDF>
  </metadata>
  <defs
     id="defs17" />
  <sodipodi:namedview
     pagecolor="#ffffff"
     bordercolor="#666666"
     borderopacity="1"
     objecttolerance="10"
     gridtolerance="10"
     guidetolerance="10"
     inkscape:pageopacity="0"
     inkscape:pageshadow="2"
     inkscape:window-width="1535"
     inkscape:window-height="876"
     id="namedview15"
     showgrid="false"
     inkscape:zoom="36.32"
     inkscape:cx="6.9430194"
     inkscape:cy="8"
     inkscape:window-x="65"
     inkscape:window-y="24"
     inkscape:window-maximized="1"
     inkscape:current-layer="svg2" />
  <path
     style="fill:#f46e2c"
     inkscape:connector-curvature="0"
     id="path5"
     d="M 8,0 C 4.1328,0 1,3.1328 1,7 l 0,4.5 c 0,1.785 1.2695,2.27 2,2.402 L 3,7 C 3,4.2305 5.2305,2 8,2 c 2.77,0 5,2.2305 5,5 l 0,6.906 c 0.73,-0.133 2,-0.621 2,-2.406 L 15,7 C 15,3.1328 11.867,0 8,0 Z" />
  <path
     style="fill:#f68b55"
     inkscape:connector-curvature="0"
     id="path7"
     d="m 3,8 0,7 3,0 0,-7 z m 7,0 0,7 3,0 0,-7 z"
     sodipodi:nodetypes="cccccccccc" />
  <path
     style="fill:#ffffff;fill-opacity:0.10196001"
     inkscape:connector-curvature="0"
     id="path9"
     d="M 8,0 C 4.1328,0 1,3.1328 1,7 l 0,0.5 c 0,-3.8672 3.1328,-7 7,-7 3.867,0 7,3.1328 7,7 L 15,7 C 15,3.1328 11.867,0 8,0 Z" />
  <path
     style="fill:#ffffff;fill-opacity:0.10196001"
     inkscape:connector-curvature="0"
     id="path11"
     d="M 3,8 3,8.5 6,8.5 6,8 Z m 7,0 0,0.5 3,0 0,-0.5 z"
     sodipodi:nodetypes="cccccccccc" />
  <path
     style="fill-opacity:0.30196001"
     inkscape:connector-curvature="0"
     id="path13"
     d="m 8,1.5 c -2.7695,0 -5,2.2305 -5,5 L 3,7 C 3,4.2305 5.2305,2 8,2 c 2.77,0 5,2.2305 5,5 l 0,-0.5 c 0,-2.7695 -2.23,-5 -5,-5 z M 1,11 1,11.5 c 0,1.785 1.2695,2.27 2,2.402 l 0,-0.5 C 2.2695,13.27 1,12.785 1,11 Z m 14,0 c 0,1.785 -1.27,2.273 -2,2.406 l 0,0.5 c 0.73,-0.133 2,-0.621 2,-2.406 z M 3,14.5 3,15 6,15 6,14.5 Z m 7,0 0,0.5 3,0 0,-0.5 z"
     sodipodi:nodetypes="sscscsscsccccccsccccccccccc" />
</svg>
